X:1
T:Mr. Peter MacGrigor's (Park Villa, Strathdon)
T:Mr. Peter MacGrigor's (Park Villa, Strathdon)
T:Alexander Walker
C:Alexander Walker
L:1/8
M:4/4
K:F
V:1 treble 
V:1
|: d | c<FA>F D>FC>F | B,>DA,>F G<G,G,>d | c<FA>F D>FC>A | B>G A/B/c/B/ A<FF>d | c<FA>F D>FC>F | %6
 B,>DA,>F G<G,G,>B | A<FA>c B/c/d/B/ c>B | A<FG>E (F2 F) || g | a>ff>c d<fc>A | B>dA>c d<GG>f | %12
 a>ff>c d<fd>B | A<FG>E (F2 F>)f | a>ff>c d<fc>A | (3BdB (3AcA G>gg>b | a<fg<e f<cd<B | %17
 A<F{A}G>E [A,F]2 [A,F] || %18

